X:145
T:My Love in the Morning   
B:CRE1.057 (Mo Ghrasa ar Maidin)
F:file ID: cre.1/145my_love
S:Michael Tubridy
M:6/8
Q:160
R:jig
K:Am
G|ABA AGE|c2B c2d|ege edB|g^fg e2d|
de^f gfe|dBG GAB|cBA dBG|A3 A2:|
g|a3 aba|g3 g^fg|a3 aba|g^fg e2d|
de^f gfe|dBG GAB|cBA dBG|A3 A2:|

%%%

